outputs/icons/editor/color_fill_round.svg

<svg xmlns="http://www.w3.org/2000/svg" width="1200" height="1200" fill="none"><g fill="#000" clip-path="url(#a)"><path fill-rule="evenodd" d="M447.003 828.01c14.5 14.5 34 22 53.002 22 19 0 38.5-7.5 53-22l275-275c29.5-29 29.5-76.499 0-105.999l-412.002-412c-19.5-19.5-51-19.5-70.5 0-19.5 19.499-19.5 51 0 70.499l84 84.001-257.5 257.5c-29.5 29.5-29.5 76.999 0 105.999zm53.002-567.499 239.5 239.499H260.503z"/><path d="M950 850.01c55 0 100-45 100-100 0-66.5-100-175-100-175s-100 108.5-100 175c0 55 45 100 100 100M200 1000.01h800c55 0 100 45 100 100s-45 100-100 100H200c-55 0-100-45-100-100s45-100 100-100"/></g><defs><clipPath id="a"><path fill="#fff" d="M0 0h1200v1200H0z"/></clipPath></defs></svg>

<svg width="1200" height="1200" viewBox="0 0 1200 1200" fill="none" xmlns="http://www.w3.org/2000/svg"><g clip-path="url(#clip0_238_238)"><path fill-rule="evenodd" d="M447.003 828.01C461.503 842.51 481.003 850.01 500.005 850.01C519.005 850.01 538.505 842.51 553.005 828.01L828.005 553.01C857.505 524.01 857.505 476.511 828.005 447.011L416.003 35.011C396.503 15.511 365.003 15.511 345.503 35.011C326.003 54.51 326.003 86.011 345.503 105.51L429.503 189.511L172.003 447.011C142.503 476.511 142.503 524.01 172.003 553.01L447.003 828.01ZM500.005 260.511L739.505 500.01H260.503L500.005 260.511Z" fill="black"/><path d="M950 850.01C1005 850.01 1050 805.01 1050 750.01C1050 683.51 950 575.01 950 575.01C950 575.01 850 683.51 850 750.01C850 805.01 895 850.01 950 850.01Z" fill="black"/><path d="M200 1000.01H1000C1055 1000.01 1100 1045.01 1100 1100.01C1100 1155.01 1055 1200.01 1000 1200.01H200C145 1200.01 100 1155.01 100 1100.01C100 1045.01 145 1000.01 200 1000.01Z" fill="black"/></g><defs><clipPath id="clip0_238_238"><path width="24" fill="white" d="M0 0H1200V1200H0V0z"/></clipPath></defs></svg>
